packages/astro-components-stencil/src/icons/filter-6.svg

<svg xmlns="http://www.w3.org/2000/svg" viewBox="0 0 24 24"><g xmlns="http://www.w3.org/2000/svg" id="filter-6" fill-rule="nonzero">
            <path d="M2 5c-.55 0-1 .45-1 1v15c0 1.1.9 2 2 2h15c.55 0 1-.45 1-1s-.45-1-1-1H4c-.55 0-1-.45-1-1V6c0-.55-.45-1-1-1zm19-4H7c-1.1 0-2 .9-2 2v14c0 1.1.9 2 2 2h14c1.1 0 2-.9 2-2V3c0-1.1-.9-2-2-2zm-1 16H8c-.55 0-1-.45-1-1V4c0-.55.45-1 1-1h12c.55 0 1 .45 1 1v12c0 .55-.45 1-1 1zm-7-2h2c1.1 0 2-.9 2-2v-2c0-1.1-.9-2-2-2h-2V7h3c.55 0 1-.45 1-1s-.45-1-1-1h-3c-1.1 0-2 .9-2 2v6c0 1.1.9 2 2 2zm0-4h2v2h-2v-2z"/>
        </g></svg>

<svg width="24" height="24" viewBox="0 0 24 24" fill="none" xmlns="http://www.w3.org/2000/svg">
<path fill-rule="evenodd" clip-rule="evenodd" d="M21 1H7C5.9 1 5 1.9 5 3V17C5 18.1 5.9 19 7 19H21C22.1 19 23 18.1 23 17V3C23 1.9 22.1 1 21 1ZM2 5C1.45 5 1 5.45 1 6V21C1 22.1 1.9 23 3 23H18C18.55 23 19 22.55 19 22C19 21.45 18.55 21 18 21H4C3.45 21 3 20.55 3 20V6C3 5.45 2.55 5 2 5ZM8 17H20C20.55 17 21 16.55 21 16V4C21 3.45 20.55 3 20 3H8C7.45 3 7 3.45 7 4V16C7 16.55 7.45 17 8 17ZM13 15H15C16.1 15 17 14.1 17 13V11C17 9.9 16.1 9 15 9H13V7H16C16.55 7 17 6.55 17 6C17 5.45 16.55 5 16 5H13C11.9 5 11 5.9 11 7V13C11 14.1 11.9 15 13 15ZM15 11H13V13H15V11Z" fill="black"/>
</svg>
